X:1
T:Title
%%score { 1 | ( 2 3 ) }
L:1/8
M:3/4
K:Db
V:1 treble nm="Grand Piano"
V:2 bass 
V:3 bass 
V:1
 z2 z2[Q:1/4=116] [FA]2 | [FA]2 [DF]2 [EG]2 | [FA]2 [GB]2 [DF]2 | [FA]3 [EG] [DF]2 | [CG]4 [EG]2 | %5
 [EG]2 [CE]2 [DF]2 | [EG]2 [DFA]2 [A,EG]2 | [A,DF]6 | [FA]4 [DFA]2 | [DGB]2 [DGB]2 [DGB]2 | %10
 [B,G]2 [DAc]2 [DGB]2 | [DFA]3 [A,DF] [A,EG]2 | [DFA]4 F2 | E2 E2 A2 | =G2 A2 B2 | [CA]6- | %16
[M:2/4] [CA]4 |[M:1/4] [GA]2 |[M:3/4] [FA]3 [_F=G] [=FA]2 | [GB]2 [FA]2 F2 | F3 E D2 | %21
 [CE]4 [CE][DF] | [EG]3 [=DF] [EG]2 | [Gc]2 [GB]2 [FA]2 | [CA]3 [CE] [C_F]2 | F4 F2 | F3 F F2 | %27
 [DB]2 [B,DF]2 [DFB]2 | [=GB]2 [Gc]2 [Gd]2 | [Ac]4 [Ge]2 | [Fd]2 [FA]2 [Fd]2 | %31
[M:7/8] [DAc]2 [DGB]3 [B,DG]2 |[M:3/4] [DF]2 [A,CG]3[K:bass] [G,CE] |[M:2/4] [F,D]4 |] %34
V:2
 z2 z2 [D,A,]2 | [D,A,]2 [D,A,]2 [D,A,]2 | [D,D]2 [D,D]2 [D,A,]2 | [A,,A,]3 [A,,A,] [A,,A,]2 | %4
 [A,,A,]4 [A,,A,]2 | [A,,A,]2 [A,,A,]2 [A,,A,]2 | [A,,A,]2 A,,2 A,,2 | z6 | D4 D,2 | G,2 G,2 G,2 | %10
 G,2 G,2 G,2 | D,3 D, D,2 | D,4 [D,A,D]2 | [E,A,C]2 [E,A,C]2 [E,A,C]2 | %14
 [E,B,D]2 [E,A,C]2 [E,=G,D]2 | [A,,A,]6- |[M:2/4] [A,,A,]4 |[M:1/4] [A,C]2 | %18
[M:3/4] [D,D]3 [D,D] [D,D]2 | [D,D]2 [D,D]2 [D,A,D]2 | [D,A,D]3 [D,G,D] [D,F,]2 | %21
 [A,,A,]4 [A,,A,][A,,A,] | [A,,A,]3 [A,,A,] [A,,A,]2 | [A,,A,]2 [A,,A,]2 [A,,A,]2 | %24
 [A,,A,]3 [A,,A,] [A,,A,]2 | [D,A,D]4 [D,A,D]2 | [D,A,D]3 [D,A,D] [D,F,D]2 | [B,,F,]2 B,,2 B,,2 | %28
 [E,E]2 [E,E]2 [E,E]2 | [A,E]4 [A,C]2 | [D,D]2 [D,D]2 [D,D]2 |[M:7/8] G,2 G,3 G,2 | %32
[M:3/4] A,2 A,,3 A,, |[M:2/4] D,4 |] %34
V:3
 x6 | x6 | x6 | x6 | x6 | x6 | x6 | D,6- | D,4 z2 | x6 | x6 | x6 | x6 | x6 | x6 | x6 |[M:2/4] x4 | %17
[M:1/4] x2 |[M:3/4] x6 | x6 | x6 | x6 | x6 | x6 | x6 | x6 | x6 | x6 | x6 | x6 | x6 |[M:7/8] x7 | %32
[M:3/4] x6 |[M:2/4] x4 |] %34

